!!!COM: Mozart
!!!OTL: 12 Variations on "Ah Vous dirais-je, Maman" for the Piano
!!!Variation: Theme b
**function	**harm	**kern	**kern
*	*	*clefF4	*clefG2
*	*	*k[]	*k[]
*M2/4	*M2/4	*M2/4	*M2/4
*C:	*C:	*C:	*C:
=9	=9	=9	=9
2D	C:maj/5	4e	4gg
.	.	4G	4gg
=10	=10	=10	=10
2D	G:7	4d	4ff
.	.	4G	4ff
=11	=11	=11	=11
2D	C:maj/5	4c	4ee
.	.	4G	4ee
=12	=12	=12	=12
2D	G:maj	4B	4dd
.	.	4G	4dd
=13	=13	=13	=13
2D	C:maj/5	4e	4gg
.	.	4G	4gg
=14	=14	=14	=14
2D	G:maj	4d	4ff
.	.	4G	4ff
=15	=15	=15	=15
2T	C:maj	4c	(4ee
.	.	.	(q32ff
.	.	.	q32ee
.	.	.	q32dd
.	.	(8.cL	8.eeL)
.	.	16dJk	16ffJk
=16	=16	=16	=16
*	*	*^	*
4D	C:maj/5	2G	4c	4ee
4D	G:maj	.	4B	4dd)
*	*	*v	*v	*
*-	*-	*-	*-
!!!EMD: Edited in humdrumR 0.7.0.3 on 2024-01-19
